public/pieces/kosal/wR.svg

<svg viewBox="0 0 81 81" xmlns="http://www.w3.org/2000/svg"><path d="m58.7 59.4-3.2-27.3 8.6-8.2v-11.1h-11.1v8.1h-6.7v-8.1h-11.6v8.1h-6.7v-8.1h-11.1v11.1l8.6 8.2-3.2 27.3h-6.6v11.6h49.6v-11.6z" fill="#fff"/><path d="m58.5 59.7-4.2-27.2h2.2l7.6-8.6v-11.1l-5.8 4.6v8.2h-26.3l11.6 6.9h3.2c0 12.1-2.8 21.3-11.7 27.2h13.3l6.1 10.3h9.9v-10.3z" fill="#cfcecf"/><path d="m59.1 58.1-2.6-24.8 8.7-9v-12.8h-13.4v8.2h-4.2v-8.2h-14.1v8.2h-4.2v-8.2h-13.7v12.9l8.7 9-2.6 24.8h-7.3v14.1h51.8v-.3h.2v-13.9zm-23.1-35.9v-8.2h9v8.2h9.2v-8.2h8.5v9.3l-8.3 8.7h-27.9l-8.4-8.6v-9.4h8.6v8.2zm18 12.2 2.6 23.7h-32.3l2.6-23.7zm2.9 26.2h7.1v9.1h-47v-9.1z"/></svg>

<svg xmlns="http://www.w3.org/2000/svg" viewBox="0 0 81 81"><style>.st0{fill:#fff}.st1{fill:#cfcecf}</style><path class="st0" d="M58.7 59.4l-3.2-27.3 8.6-8.2V12.8H53v8.1h-6.7v-8.1H34.7v8.1H28v-8.1H16.9v11.1l8.6 8.2-3.2 27.3h-6.6V71h49.6V59.4z"/><path class="st1" d="M58.5 59.7l-4.2-27.2h2.2l7.6-8.6V12.8l-5.8 4.6v8.2H32l11.6 6.9h3.2c0 12.1-2.8 21.3-11.7 27.2h13.3L54.5 70h9.9V59.7h-5.9z"/><path d="M59.1 58.1l-2.6-24.8 8.7-9V11.5H51.8v8.2h-4.2v-8.2H33.5v8.2h-4.2v-8.2H15.6v12.9l8.7 9-2.6 24.8h-7.3v14.1h51.8V72h.2V58.1h-7.3zM36 22.2V14h9v8.2h9.2V14h8.5v9.3L54.4 32H26.5l-8.4-8.6V14h8.6v8.2H36zm18 12.2l2.6 23.7H24.3l2.6-23.7H54zm2.9 26.2H64v9.1H17v-9.1h39.9z"/></svg>
